X: 613
T: Buduan qiao wugeng
%%abc-version 2.0
%%abcx-abcm2ps-target-version 5.9.1 (29 Sep 2008)
%%abc-creator hum2abc beta
%%abcx-conversion-date 2013/10/02 07:52:30
%%abc-edited-by Helmut Schaffrath
%%humdrum-veritas 653405700
%%humdrum-veritas-data 1878714097
%%continueall 1
%%barnumbers 0
L: 1/8
M: 2/4
K: G
A2d B [I:setbarnb 1]| 
d2E G | 
A2A2 | 
d2g e | 
d4 | 
B A/ B/ d B | 
A G E D | 
G2G2 | 
A d B A | 
G2E A | 
G4 | 
d g e d | 
c3d | 
g g e d | 
d4 | 
B A/ B/ d B | 
A G E D | 
G2G2 | 
E D G B | 
A G E G | 
A4 | 
d2e d | 
d Ad2 | 
d> B A G | 
G EA2 | 
G E D/ G/ e/ B/ | 
D2D2 | 
B A G A/ B/ | 
D3E | 
D4 |]  



